src/images/how-it-works-circular-arrow.svg

<svg width="63" height="88" viewBox="0 0 63 88" fill="none" xmlns="http://www.w3.org/2000/svg">
<path d="M63 2C63 1.17157 62.3284 0.5 61.5 0.5C60.6715 0.5 60 1.17157 60 2L63 2ZM13.0607 0.93934C12.4749 0.353553 11.5251 0.353553 10.9393 0.93934L1.39339 10.4853C0.807609 11.0711 0.807609 12.0208 1.39339 12.6066C1.97918 13.1924 2.92893 13.1924 3.51472 12.6066L12 4.12132L20.4853 12.6066C21.0711 13.1924 22.0208 13.1924 22.6066 12.6066C23.1924 12.0208 23.1924 11.0711 22.6066 10.4853L13.0607 0.93934ZM60 2L60 61.75L63 61.75L63 2L60 2ZM13.5 61.75L13.5 2L10.5 2L10.5 61.75L13.5 61.75ZM36.75 85C23.9094 85 13.5 74.5906 13.5 61.75L10.5 61.75C10.5 76.2475 22.2525 88 36.75 88L36.75 85ZM60 61.75C60 74.5906 49.5906 85 36.75 85L36.75 88C51.2475 88 63 76.2475 63 61.75L60 61.75Z" fill="#1C383C"/>
</svg>

<svg width="63" height="88" fill="none" xmlns="http://www.w3.org/2000/svg"><path d="M63 2c0-.8284-.6716-1.5-1.5-1.5-.8285 0-1.5.6716-1.5 1.5h3ZM13.0607.9393c-.5858-.5857-1.5356-.5857-2.1214 0l-9.546 9.546c-.5857.5858-.5857 1.5355 0 2.1213.5859.5858 1.5356.5858 2.1214 0L12 4.1213l8.4853 8.4853c.5858.5858 1.5355.5858 2.1213 0 .5858-.5858.5858-1.5355 0-2.1213L13.0607.9393ZM60 2v59.75h3V2h-3ZM13.5 61.75V2h-3v59.75h3ZM36.75 85C23.9094 85 13.5 74.5906 13.5 61.75h-3C10.5 76.2475 22.2525 88 36.75 88v-3ZM60 61.75C60 74.5906 49.5906 85 36.75 85v3C51.2475 88 63 76.2475 63 61.75h-3Z" fill="#1C383C"/></svg>
